X:1
T:Le Roi Renaud
R:Chanson
O:France
B:Le livre des Chansons (Henri Davenson) n°1
Z:<anamnese@caramail.com> -- http://anamnese.fr.st
M:6/8
L:1/8
Q:1/4=105
K:C
D D D | A3 A B B | G3 c c c  | d3 c c B | A2z D D D |
        A3 A A D | F3 A G _B | A3 G F E | D3-D2 z2 ||
W:Le roi Renaud de guerre revint,
W:Portant ses tripes en sa main.
W:Sa mère était sur le créneau
W:Qui vit venir son fils Renaud :
W:
W:Renaud, Renaud, réjouis-toi ! / Ta femme est accouchée d'un roi.
W:- Ni de ma femme, ni de mon fils / Je ne saurais me réjouir.
W:
W:Allez ma mère, allez devant ; / Faites-moi faire un beau lit blanc :
W:Guère de temps n'y passerai, / A la minuit trépasserai.
W:
W:Mais faites-le moi faire ici bas, / Que l'accouchée n'entende pas."
W:Et quand ce vint sur la minuit / Le roi Renaud rendit l'esprit.
W:
W:Il ne fut pas le matin jour / Que les valets pleuraient tretous ;
W:Il ne fut temps de déjeuner / Que les servantes ont pleuré.
W:
W:"Ah, dites-moi, mère m'amie, / Que pleurent nos valets ici ?
W:- Ma fille, en baignant nos chevaux, / Ont laissé noyer le plus beau.
W:
W:Et pourquoi, mère m'amie / Pour un cheval pleurer ainsi ?
W:Quand le roi Renaud reviendra / Plus beaux chevaux amènera. /.../
W:
A A A | F3 G F E | D2 z A A A | F3 G F E | D2 z A, D E |
F3 G F E | D3 E F G | A E HG2 F>E | D3-D z2 ||
W:- Renaud, Renaud, mon réconfort,
W:Te voilà donc au rang des morts ;
W:Divin Renaud, mon réconfort,
W:Te voilà donc au rang des morts !
W:
W:Puisque le roi Renaud est mort, / Voici les clefs de mon trésor ;
W:Prenez mes bagues et mes joyaux, / Nourrissez bien le fils Renaud.
W:
W:Terre, ouvre-toi, terre, fends-toi, / Que j'aille avec Renaud mon roi !"
W:Terre s'ouvrit, terre fendit, / Et si fut la belle engloutie.

